flaticon/education/open-book-2.svg

<svg xmlns="http://www.w3.org/2000/svg" width="32" height="32" viewBox="0 0 24 24">
    <path d="M3.839844 6.558594L6.640625 7.679688C6.71875 7.71875 6.761719 7.71875 6.800781 7.71875 6.960938 7.71875 7.121094 7.601562 7.160156 7.441406 7.238281 7.238281 7.121094 7 6.921875 6.921875L4.121094 5.800781C3.921875 5.71875 3.679688 5.839844 3.601562 6.039062 3.519531 6.238281 3.640625 6.480469 3.839844 6.558594zM3.640625 8.238281C3.558594 8.441406 3.679688 8.679688 3.878906 8.761719L9.878906 10.960938C9.921875 11 9.960938 11 10 11 10.160156 11 10.320312 10.921875 10.398438 10.71875 10.480469 10.519531 10.359375 10.28125 10.160156 10.199219L4.160156 8C3.960938 7.921875 3.71875 8.039062 3.640625 8.238281zM10.160156 12.601562L4.160156 10.398438C3.960938 10.320312 3.71875 10.441406 3.640625 10.640625 3.558594 10.839844 3.679688 11.078125 3.878906 11.160156L9.878906 13.359375C9.921875 13.398438 9.960938 13.398438 10 13.398438 10.160156 13.398438 10.320312 13.320312 10.398438 13.121094 10.480469 12.921875 10.359375 12.679688 10.160156 12.601562zM10.160156 15L4.160156 12.800781C3.960938 12.71875 3.71875 12.839844 3.640625 13.039062 3.558594 13.238281 3.679688 13.480469 3.878906 13.558594L9.878906 15.761719C9.921875 15.800781 9.960938 15.800781 10 15.800781 10.160156 15.800781 10.320312 15.71875 10.398438 15.519531 10.480469 15.320312 10.359375 15.078125 10.160156 15zM10.160156 17.398438L4.160156 15.199219C3.960938 15.121094 3.71875 15.238281 3.640625 15.441406 3.558594 15.640625 3.679688 15.878906 3.878906 15.960938L9.878906 18.160156C9.921875 18.199219 9.960938 18.199219 10 18.199219 10.160156 18.199219 10.320312 18.121094 10.398438 17.921875 10.480469 17.71875 10.359375 17.480469 10.160156 17.398438zM10.160156 17.398438"/>
    <path d="M 22.878906 4 L 16.558594 4 L 16.160156 3.601562 L 16.441406 3.359375 C 16.558594 3.238281 16.558594 3.039062 16.480469 2.878906 C 16.359375 2.71875 16.160156 2.679688 16 2.71875 L 11.984375 3.957031 L 2.121094 0.800781 C 2 0.800781 1.878906 0.800781 1.761719 0.878906 C 1.679688 0.960938 1.601562 1.078125 1.601562 1.199219 L 1.601562 4 L 1.121094 4 C 0.519531 4 0 4.519531 0 5.160156 L 0 22.078125 C 0 22.679688 0.519531 23.199219 1.121094 23.199219 L 22.878906 23.199219 C 23.480469 23.199219 24 22.679688 24 22.078125 L 24 5.160156 C 24 4.519531 23.480469 4 22.878906 4 Z M 15.320312 3.878906 L 16.640625 5.199219 L 15.320312 6.519531 C 15.160156 6.679688 15.160156 6.921875 15.320312 7.078125 L 16.640625 8.398438 L 15.320312 9.71875 C 15.160156 9.878906 15.160156 10.121094 15.320312 10.28125 L 16.640625 11.601562 L 15.320312 12.921875 C 15.160156 13.078125 15.160156 13.320312 15.320312 13.480469 L 16.640625 14.800781 L 15.320312 16.121094 C 15.160156 16.28125 15.160156 16.519531 15.320312 16.679688 L 16.640625 18 L 15.320312 19.320312 C 15.160156 19.480469 15.160156 19.71875 15.320312 19.878906 L 16.398438 20.960938 L 12.398438 22.238281 L 12.398438 4.679688 L 15.238281 3.761719 C 15.28125 3.800781 15.28125 3.839844 15.320312 3.878906 Z M 2.398438 1.761719 L 11.558594 4.667969 L 11.558594 22.257812 L 2.398438 19.320312 Z M 1.121094 22.398438 C 0.960938 22.398438 0.800781 22.238281 0.800781 22.078125 L 0.800781 5.160156 C 0.800781 4.960938 0.960938 4.800781 1.121094 4.800781 L 1.601562 4.800781 L 1.601562 19.601562 C 1.601562 19.761719 1.71875 19.921875 1.878906 20 L 9.398438 22.398438 Z M 23.160156 5.160156 L 23.160156 22.078125 C 23.160156 22.238281 23.039062 22.398438 22.839844 22.398438 L 14.558594 22.398438 L 17.28125 21.519531 C 17.441406 21.480469 17.558594 21.359375 17.558594 21.238281 C 17.558594 21.121094 17.519531 20.960938 17.441406 20.878906 L 16.160156 19.601562 L 17.480469 18.28125 C 17.640625 18.121094 17.640625 17.878906 17.480469 17.71875 L 16.160156 16.398438 L 17.480469 15.078125 C 17.640625 14.921875 17.640625 14.679688 17.480469 14.519531 L 16.160156 13.199219 L 17.480469 11.878906 C 17.640625 11.71875 17.640625 11.480469 17.480469 11.320312 L 16.160156 10 L 17.480469 8.679688 C 17.640625 8.519531 17.640625 8.28125 17.480469 8.121094 L 16.160156 6.800781 L 17.480469 5.480469 C 17.640625 5.320312 17.640625 5.078125 17.480469 4.921875 L 17.359375 4.800781 L 22.878906 4.800781 C 23.039062 4.800781 23.199219 4.960938 23.160156 5.160156 Z M 23.160156 5.160156"/>
</svg>

<svg xmlns="http://www.w3.org/2000/svg" width="32" height="32" viewBox="0 0 24 24">
    <path d="M3.84 6.559l2.8 1.12c.079.04.122.04.16.04a.38.38 0 0 0 .36-.278.415.415 0 0 0-.238-.52l-2.8-1.12c-.2-.082-.442.039-.52.238-.082.2.039.441.238.52zm0 0M3.64 8.238c-.081.203.04.442.239.524l6 2.199C9.922 11 9.96 11 10 11a.41.41 0 0 0 .398-.281c.082-.2-.039-.438-.238-.52L4.16 8c-.2-.078-.441.04-.52.238zm0 0M10.16 12.602l-6-2.204c-.2-.078-.441.043-.52.243-.081.199.04.437.239.52l6 2.198c.043.04.082.04.121.04.16 0 .32-.079.398-.278.082-.2-.039-.441-.238-.52zm0 0M10.16 15l-6-2.2c-.2-.081-.441.04-.52.24-.081.198.04.44.239.519l6 2.203c.043.039.082.039.121.039.16 0 .32-.082.398-.281.082-.2-.039-.442-.238-.52zm0 0M10.16 17.398l-6-2.199c-.2-.078-.441.04-.52.242-.081.2.04.438.239.52l6 2.2c.043.038.082.038.121.038.16 0 .32-.078.398-.277.082-.203-.039-.442-.238-.524zm0 0"/>
    <path d="M22.879 4h-6.32l-.399-.398.281-.243c.118-.12.118-.32.04-.48a.462.462 0 0 0-.481-.16l-4.016 1.238L2.121.801C2 .8 1.88.8 1.761.879c-.081.082-.16.2-.16.32V4h-.48C.52 4 0 4.52 0 5.16v16.918C0 22.68.52 23.2 1.121 23.2H22.88c.601 0 1.121-.52 1.121-1.12V5.16C24 4.52 23.48 4 22.879 4zm-7.559-.121l1.32 1.32-1.32 1.32a.385.385 0 0 0 0 .56l1.32 1.32-1.32 1.32a.39.39 0 0 0 0 .562l1.32 1.32-1.32 1.32a.385.385 0 0 0 0 .56l1.32 1.32-1.32 1.32a.385.385 0 0 0 0 .559L16.64 18l-1.32 1.32a.385.385 0 0 0 0 .559l1.078 1.082-4 1.277V4.68l2.84-.918c.043.039.043.078.082.117zM2.398 1.762l9.16 2.906v17.59l-9.16-2.938zM1.121 22.398c-.16 0-.32-.16-.32-.32V5.16c0-.2.16-.36.32-.36h.48v14.802c0 .16.118.32.278.398l7.52 2.398zM23.161 5.16v16.918c0 .16-.122.32-.321.32h-8.281l2.722-.878c.16-.04.278-.16.278-.282 0-.117-.04-.277-.118-.36l-1.28-1.276 1.32-1.32a.39.39 0 0 0 0-.563l-1.32-1.32 1.32-1.32a.385.385 0 0 0 0-.56l-1.32-1.32 1.32-1.32a.385.385 0 0 0 0-.559L16.16 10l1.32-1.32a.385.385 0 0 0 0-.559l-1.32-1.32 1.32-1.32a.385.385 0 0 0 0-.56l-.122-.12h5.52a.3.3 0 0 1 .281.36zm0 0"/>
</svg>
